polaris-icons/icons/NoteAddIcon.svg

<svg xmlns="http://www.w3.org/2000/svg" viewBox="0 0 20 20"><path d="M3.5 6.25C3.5 4.73122 4.73122 3.5 6.25 3.5H13.75C15.2688 3.5 16.5 4.73122 16.5 6.25V10.5C16.5 10.9142 16.1642 11.25 15.75 11.25C15.3358 11.25 15 10.9142 15 10.5V6.25C15 5.55964 14.4404 5 13.75 5H6.25C5.55964 5 5 5.55964 5 6.25V13.75C5 14.4404 5.55964 15 6.25 15H10.5C10.9142 15 11.25 15.3358 11.25 15.75C11.25 16.1642 10.9142 16.5 10.5 16.5H6.25C4.73122 16.5 3.5 15.2688 3.5 13.75V6.25Z"/>
<path d="M15 12.25C15.4142 12.25 15.75 12.5858 15.75 13V14.25H17C17.4142 14.25 17.75 14.5858 17.75 15C17.75 15.4142 17.4142 15.75 17 15.75H15.75V17C15.75 17.4142 15.4142 17.75 15 17.75C14.5858 17.75 14.25 17.4142 14.25 17V15.75H13C12.5858 15.75 12.25 15.4142 12.25 15C12.25 14.5858 12.5858 14.25 13 14.25H14.25V13C14.25 12.5858 14.5858 12.25 15 12.25Z"/>
<path d="M6.55 7.24999C6.55 6.86339 6.8634 6.54999 7.25 6.54999H12.75C13.1366 6.54999 13.45 6.86339 13.45 7.24999C13.45 7.63659 13.1366 7.94999 12.75 7.94999H7.25C6.8634 7.94999 6.55 7.63659 6.55 7.24999Z"/>
<path d="M7.25 9.04999C6.8634 9.04999 6.55 9.36339 6.55 9.74999C6.55 10.1366 6.8634 10.45 7.25 10.45H9.5C9.8866 10.45 10.2 10.1366 10.2 9.74999C10.2 9.36339 9.8866 9.04999 9.5 9.04999H7.25Z"/>
</svg>

<svg xmlns="http://www.w3.org/2000/svg" viewBox="0 0 20 20"><path d="M3.5 6.25c0-1.519 1.231-2.75 2.75-2.75h7.5c1.519 0 2.75 1.231 2.75 2.75v4.25c0 .414-.336.75-.75.75s-.75-.336-.75-.75v-4.25c0-.69-.56-1.25-1.25-1.25h-7.5c-.69 0-1.25.56-1.25 1.25v7.5c0 .69.56 1.25 1.25 1.25h4.25c.414 0 .75.336.75.75s-.336.75-.75.75h-4.25c-1.519 0-2.75-1.231-2.75-2.75v-7.5Z"/><path d="M15 12.25c.414 0 .75.336.75.75v1.25h1.25c.414 0 .75.336.75.75s-.336.75-.75.75h-1.25v1.25c0 .414-.336.75-.75.75s-.75-.336-.75-.75v-1.25h-1.25c-.414 0-.75-.336-.75-.75s.336-.75.75-.75h1.25v-1.25c0-.414.336-.75.75-.75Z"/><path d="M6.55 7.25c0-.387.313-.7.7-.7h5.5c.387 0 .7.313.7.7 0 .387-.313.7-.7.7h-5.5c-.387 0-.7-.313-.7-.7Z"/><path d="M7.25 9.05c-.387 0-.7.313-.7.7 0 .387.313.7.7.7h2.25c.387 0 .7-.313.7-.7 0-.387-.313-.7-.7-.7h-2.25Z"/></svg>
